X: 1
T: Bruremarsj etter Hans Gjeitvik
O: Norway
R: march
Z: 2017 John Chambers <jc:trillian.mit.edu>
S: Printed page of unnown origin, with 2 versions on the two sides.
F: https://www.youtube.com/watch?v=vQtgfB0ckZQ
M: 2/4
L: 1/16
K: A
|:\
"A"efga e4 | efga e4 | "D"{B}d2d2 "A"{B}c2c2 | "A"{B}A2Ac "E7"e2eg |\
"D"~f2e2 ~d2c2 |[1[M:3/4] "E7"B4 ~BABc B4 :|[2[M:2/4] "E7"~B3A GABc | "A"{G}A4- A4 |]
|:\
"A"E2A2 c2A2 | E2A2 ~c2A2 | "E7"B3c dedc |[M:3/4] B4 ~BABc ~B4 |[M:2/4]\
"A"{B}A2Ac "E7"e2eg | "D"~f2e2 ~d2c2 | "E7"B3A GABc | "A"{G}A4 [A4E4] :|
